skin/frontend/kapten/default/images/dhl_x2.svg

<svg id="Ebene_1" xmlns="http://www.w3.org/2000/svg" viewBox="0 0 244.8 56"><style/><path fill="#fecc00" d="M239.4 2.2v51.6H5.3V2.2h234.1z"/><path d="M79.8 23.7c-1 1.4-2.8 3.9-3.9 5.3-.5.7-1.5 2.1 1.7 2.1h17.1s2.7-3.7 5.1-6.9c3.1-4.3.3-13.1-10.9-13.1H44.8l-7.7 10.4h41.7c2.1 0 2.1.8 1 2.2zm-12.5 9.9c-3.2 0-2.3-1.3-1.7-2.1 1.1-1.4 2.8-3.9 3.9-5.3 1-1.4 1.1-2.2-1.1-2.2H49.3L34 44.9h37.5c12.4 0 19.3-8.4 21.4-11.3H67.3zm24.4 11.3h22l8.3-11.3h-22l-8.3 11.3zm56.7-33.8L140 22.5h-9.8l8.4-11.5h-22l-14.7 20h53.8l14.7-20h-22zm-24.9 33.8h22l8.3-11.3h-22l-8.3 11.3zM2.6 38.1v2.4h30.6l1.8-2.4H2.6zm35.7-4.5H2.6V36h33.9l1.8-2.4zM2.6 44.9H30l1.8-2.4H2.6v2.4zm207.3-4.4h32.3v-2.4h-30.5l-1.8 2.4zm-3.3 4.4h35.5v-2.4h-33.8l-1.7 2.4zm8.3-11.3l-1.8 2.4h29v-2.4h-27.2zM186.1 31l14.7-20h-23.3l-14.7 20h23.3zM161 33.6l-2.4 3.3c-2.8 3.7-.3 8.1 8.7 8.1h35.3l8.3-11.3-49.9-.1z" fill="#d50029"/></svg>

<?xml version="1.0" encoding="utf-8"?>
<!-- Generator: Adobe Illustrator 19.2.1, SVG Export Plug-In . SVG Version: 6.00 Build 0)  -->
<svg version="1.1" id="Ebene_1" xmlns="http://www.w3.org/2000/svg" xmlns:xlink="http://www.w3.org/1999/xlink" x="0px" y="0px"
	 viewBox="0 0 244.8 56" style="enable-background:new 0 0 244.8 56;" xml:space="preserve">
<style type="text/css">
	.st0{fill:#374858;}
	.st1{fill:#FFFFFF;}
	.st2{fill:#EF7873;}
	.st3{fill:none;stroke:#374858;stroke-width:2;stroke-miterlimit:10;}
	.st4{fill:none;stroke:#374858;stroke-width:3;stroke-miterlimit:10;}
	.st5{fill:none;stroke:#374858;stroke-width:2;stroke-linejoin:round;stroke-miterlimit:10;}
	.st6{fill:none;stroke:#374858;stroke-width:3;stroke-linejoin:round;stroke-miterlimit:10;}
	.st7{fill:#FFFFFF;stroke:#374858;stroke-width:2;stroke-miterlimit:10;}
	.st8{fill:#FFFFFF;stroke:#374858;stroke-width:3;stroke-miterlimit:10;}
	.st9{fill:#F2F2F2;stroke:#FFFFFF;stroke-width:1.5;stroke-miterlimit:10;}
	.st10{fill:#F2F2F2;}
	.st11{fill:none;stroke:#EF7873;stroke-width:2;stroke-miterlimit:10;}
	.st12{fill:none;stroke:#EF7873;stroke-width:3;stroke-miterlimit:10;}
	.st13{opacity:0.5;}
	.st14{fill:none;stroke:#374858;stroke-width:2;stroke-linecap:round;stroke-linejoin:round;stroke-miterlimit:10;}
	.st15{fill:none;stroke:#374858;stroke-width:3;stroke-linecap:round;stroke-linejoin:round;stroke-miterlimit:10;}
	.st16{fill:none;stroke:#374858;stroke-width:2;stroke-linecap:round;stroke-miterlimit:10;}
	.st17{fill:none;stroke:#374858;stroke-width:3;stroke-linecap:round;stroke-miterlimit:10;}
	.st18{fill:#FFFFFF;stroke:#CCCCCC;stroke-miterlimit:10;}
	.st19{fill:#0097D9;}
	.st20{fill:#E40520;}
	.st21{fill:#06326E;}
	.st22{fill:#306FC5;}
	.st23{fill:#265697;}
	.st24{fill:#005098;}
	.st25{fill:#F6A500;}
	.st26{fill:#FAB31E;}
	.st27{fill:#FFCC00;}
	.st28{fill:#D2002E;}
	.st29{fill:#FECC00;}
	.st30{fill:#D50029;}
</style>
<g>
	<polygon class="st29" points="239.4,2.2 239.4,53.8 5.3,53.8 5.3,2.2 239.4,2.2 	"/>
	<path class="st30" d="M79.8,23.7c-1,1.4-2.8,3.9-3.9,5.3c-0.5,0.7-1.5,2.1,1.7,2.1c3.4,0,17.1,0,17.1,0s2.7-3.7,5.1-6.9
		c3.1-4.3,0.3-13.1-10.9-13.1c-10,0-44.1,0-44.1,0l-7.7,10.4c0,0,39.7,0,41.7,0C80.9,21.5,80.9,22.3,79.8,23.7z M67.3,33.6
		c-3.2,0-2.3-1.3-1.7-2.1c1.1-1.4,2.8-3.9,3.9-5.3c1-1.4,1.1-2.2-1.1-2.2c-2,0-19.1,0-19.1,0L34,44.9c0,0,27.5,0,37.5,0
		c12.4,0,19.3-8.4,21.4-11.3C92.9,33.6,70.7,33.6,67.3,33.6z M91.7,44.9h22l8.3-11.3l-22,0C100,33.6,91.7,44.9,91.7,44.9z
		 M148.4,11.1L140,22.5h-9.8l8.4-11.5h-22l-14.7,20h53.8l14.7-20H148.4z M123.5,44.9h22l8.3-11.3h-22
		C131.8,33.6,123.5,44.9,123.5,44.9z M2.6,38.1v2.4h30.6l1.8-2.4H2.6z M38.3,33.6H2.6V36h33.9L38.3,33.6z M2.6,44.9H30l1.8-2.4H2.6
		V44.9z M209.9,40.5h32.3v-2.4h-30.5L209.9,40.5z M206.6,44.9h35.5v-2.4h-33.8L206.6,44.9z M214.9,33.6l-1.8,2.4h29v-2.4H214.9z
		 M186.1,31l14.7-20h-23.3c0,0-14.7,20-14.7,20H186.1z M161,33.6c0,0-1.6,2.2-2.4,3.3c-2.8,3.7-0.3,8.1,8.7,8.1
		c10.4,0,35.3,0,35.3,0l8.3-11.3L161,33.6L161,33.6z"/>
</g>
</svg>
